
;FLAVOR:Marlin
;TIME:4740
;Filament used: 3.93848m
;Layer height: 0.2
;MINX:91.835
;MINY:89.519
;MINZ:0.2
;MAXX:143.165
;MAXY:140.849
;MAXZ:10
;Generated with Cura_SteamEngine 4.12.1
M140 S50
M105
M190 S50
M104 S200
M105
M109 S200
M82 ;absolute extrusion mode
G90 ;Laser FFF Custom Start Gcode
M82
M106 S0
M140 S60 ; From this M140 to M109 are temperature settings and should be added by Cura
M190 S60
M104 S250 T0
M109 S250 T0
G28 ; home all axes 
G0 A0.0 F600.0
G0 X50 Z20 F2400; lift up nozzle. This part should also be available in Cura called as wipe or something similar. 
G0 E50  F2400.0
G0 A180.0 F600.0
G0 X0 Z0 F1800 ; move to home position
G92 E0
G92 E0
M60; Laser disable
G1 F2700 E-5
;LAYER_COUNT:50

;LAYER:0
M107
;MESH:hollow cube for ryan test.STL
G0 A307.185 F600.0
M60; Laser disable
G0 F6000 X100.374 Y132.31 Z0.2
;TYPE:WALL-INNER
M61; Laser enable
G1 F2700 E0
G0 A0.0 F600.0
G1 F1200 X134.626 Y132.31 E1.13923
G0 A90.0 F600.0
G1 X134.626 Y98.058 E2.27845 F1200.0
G0 A180.0 F600.0
G1 X100.374 Y98.058 E3.41768 F1200.0
G0 A270.0 F600.0
G1 X100.374 Y132.31 E4.5569 F1200.0
G0 A45.0 F600.0
M60; Laser disable
G0 F6000 X100.774 Y131.91
;TYPE:WALL-OUTER
G0 A0.0 F600.0
M61; Laser enable
G1 F1200 X134.226 Y131.91 E5.66952
G0 A90.0 F600.0
G1 X134.226 Y98.458 E6.78214 F1200.0
G0 A180.0 F600.0
G1 X100.774 Y98.458 E7.89476 F1200.0
G0 A270.0 F600.0
G1 X100.774 Y131.91 E9.00738 F1200.0
G1 F2700 E4.00738
G0 A180.0 F600.0
M60; Laser disable
G0 F6000 X100.474 Y131.91
G0 A346.122 F600.0
G0 X102.781 Y132.48 F6000.0
G0 A90.0 F600.0
G0 X102.781 Y131.045 F6000.0
G0 A342.98699999999997 F600.0
G0 X134.822 Y140.849 F6000.0
G0 A90.0 F600.0
G0 X134.822 Y139.374 F6000.0
G0 A358.301 F600.0
G0 X141.9 Y139.584 F6000.0
;TYPE:WALL-INNER
M61; Laser enable
G1 F2700 E9.00738
G0 A180.0 F600.0
G1 F1200 X93.1 Y139.584 E10.63047
G0 A90.0 F600.0
G1 X93.1 Y90.784 E12.25357 F1200.0
G0 A0.0 F600.0
G1 X141.9 Y90.784 E13.87666 F1200.0
G0 A270.0 F600.0
G1 X141.9 Y139.584 E15.49976 F1200.0
G0 A315.0 F600.0
M60; Laser disable
G0 F6000 X142.3 Y139.984
;TYPE:WALL-OUTER
G0 A180.0 F600.0
M61; Laser enable
G1 F1200 X92.7 Y139.984 E17.14946
G0 A90.0 F600.0
G1 X92.7 Y90.384 E18.79916 F1200.0
G0 A0.0 F600.0
G1 X142.3 Y90.384 E20.44886 F1200.0
G0 A270.0 F600.0
G1 X142.3 Y139.984 E22.09857 F1200.0
G0 A135.0 F600.0
M60; Laser disable
G0 F6000 X142.03 Y139.714
G0 A114.775 F600.0
G0 X141.79 Y139.194 F6000.0
G0 A180.0 F600.0
G0 X141.51 Y139.194 F6000.0
;TYPE:SKIN
G0 A180.0 F600.0
M61; Laser enable
G1 F1200 X93.49 Y139.194 E23.69572
G0 A90.0 F600.0
G1 X93.49 Y91.174 E25.29287 F1200.0
G0 A0.0 F600.0
G1 X141.51 Y91.174 E26.89002 F1200.0
G0 A270.0 F600.0
G1 X141.51 Y139.194 E28.48717 F1200.0
G1 F2700 E23.48717
G0 A0.0 F600.0
M60; Laser disable
G0 F6000 X141.79 Y139.194
G0 A90.85 F600.0
G0 X141.69 Y132.45 F6000.0
G0 A0.0 F600.0
G0 X143.165 Y132.45 F6000.0
G0 A171.90300000000002 F600.0
G0 X133.373 Y131.057 F6000.0
G0 A316.01 F600.0
G0 X134.816 Y132.45 F6000.0
M61; Laser enable
G1 F2700 E28.48717
G0 A308.65999999999997 F600.0
M60; Laser disable
G0 F6000 X135.016 Y132.7
G0 A90.0 F600.0
M61; Laser enable
G1 F1200 X135.016 Y97.668 E29.65234
G0 A180.0 F600.0
G1 X99.984 Y97.668 E30.81751 F1200.0
G0 A270.0 F600.0
G1 X99.984 Y132.7 E31.98268 F1200.0
G0 A0.0 F600.0
G1 X135.016 Y132.7 E33.14785 F1200.0
G1 F2700 E28.14785
G0 A138.24 F600.0
M60; Laser disable
G0 F6000 X134.736 Y132.45
G0 A89.26599999999999 F600.0
G0 X134.796 Y127.766 F6000.0
G0 A180.0 F600.0
G0 X133.361 Y127.766 F6000.0
G0 A71.84800000000001 F600.0
G0 X143.165 Y97.862 F6000.0
G0 A180.0 F600.0
G0 X141.69 Y97.862 F6000.0
G0 A89.09 F600.0
G0 X141.79 Y91.568 F6000.0
M61; Laser enable
G1 F2700 E33.14785
G0 A180.0 F600.0
M60; Laser disable
G0 F6000 X141.349 Y91.568
G0 A135.122 F600.0
M61; Laser enable
G1 F1200 X141.114 Y91.334 E33.15888
G0 A180.0 F600.0
M60; Laser disable
G0 F6000 X140.548 Y91.334
G0 A315.036 F600.0
M61; Laser enable
G1 F1200 X141.349 Y92.134 E33.19653
G0 A270.0 F600.0
M60; Laser disable
G0 F6000 X141.349 Y92.7
G0 A135.0 F600.0
M61; Laser enable
G1 F1200 X139.983 Y91.334 E33.26078
G0 A180.0 F600.0
M60; Laser disable
G0 F6000 X139.417 Y91.334
G0 A315.015 F600.0
M61; Laser enable
G1 F1200 X141.349 Y93.265 E33.35164
G0 A270.0 F600.0
M60; Laser disable
G0 F6000 X141.349 Y93.831
G0 A135.011 F600.0
M61; Laser enable
G1 F1200 X138.851 Y91.334 E33.46911
G0 A180.0 F600.0
M60; Laser disable
G0 F6000 X138.286 Y91.334
G0 A315.0 F600.0
M61; Laser enable
G1 F1200 X141.349 Y94.397 E33.61319
G0 A270.0 F600.0
M60; Laser disable
G0 F6000 X141.349 Y94.963
G0 A135.0 F600.0
M61; Laser enable
G1 F1200 X137.72 Y91.334 E33.78388
G0 A180.0 F600.0
M60; Laser disable
G0 F6000 X137.154 Y91.334
G0 A315.007 F600.0
M61; Laser enable
G1 F1200 X141.349 Y95.528 E33.98118
G0 A270.0 F600.0
M60; Laser disable
G0 F6000 X141.349 Y96.094
G0 A135.006 F600.0
M61; Laser enable
G1 F1200 X136.588 Y91.334 E34.2051
G0 A180.0 F600.0
M60; Laser disable
G0 F6000 X136.023 Y91.334
G0 A315.0 F600.0
M61; Laser enable
G1 F1200 X141.349 Y96.66 E34.45562
G0 A270.0 F600.0
M60; Laser disable
G0 F6000 X141.349 Y97.225
G0 A135.005 F600.0
M61; Laser enable
G1 F1200 X135.457 Y91.334 E34.73273
G0 A180.0 F600.0
M60; Laser disable
G0 F6000 X134.891 Y91.334
G0 A315.004 F600.0
M61; Laser enable
G1 F1200 X141.349 Y97.791 E35.03648
G0 A270.0 F600.0
M60; Laser disable
G0 F6000 X141.349 Y98.357
G0 A135.0 F600.0
M61; Laser enable
G1 F1200 X134.326 Y91.334 E35.36682
G0 A180.0 F600.0
M60; Laser disable
G0 F6000 X133.76 Y91.334
G0 A315.004 F600.0
M61; Laser enable
G1 F1200 X141.349 Y98.922 E35.72376
G0 A270.0 F600.0
M60; Laser disable
G0 F6000 X141.349 Y99.488
G0 A135.004 F600.0
M61; Laser enable
G1 F1200 X133.194 Y91.334 E36.10732
G0 A180.0 F600.0
M60; Laser disable
G0 F6000 X132.629 Y91.334
G0 A315.0 F600.0
M61; Laser enable
G1 F1200 X141.349 Y100.054 E36.51748
G0 A270.0 F600.0
M60; Laser disable
G0 F6000 X141.349 Y100.619
G0 A135.003 F600.0
M61; Laser enable
G1 F1200 X132.063 Y91.334 E36.95424
G0 A180.0 F600.0
M60; Laser disable
G0 F6000 X131.497 Y91.334
G0 A315.003 F600.0
M61; Laser enable
G1 F1200 X141.349 Y101.185 E37.41763
G0 A270.0 F600.0
M60; Laser disable
G0 F6000 X141.349 Y101.751
G0 A135.0 F600.0
M61; Laser enable
G1 F1200 X130.932 Y91.334 E37.90761
G0 A180.0 F600.0
M60; Laser disable
G0 F6000 X130.366 Y91.334
G0 A315.003 F600.0
M61; Laser enable
G1 F1200 X141.349 Y102.316 E38.42419
G0 A270.0 F600.0
M60; Laser disable
G0 F6000 X141.349 Y102.882
G0 A135.002 F600.0
M61; Laser enable
G1 F1200 X129.8 Y91.334 E38.9674
G0 A180.0 F600.0
M60; Laser disable
G0 F6000 X129.235 Y91.334
G0 A315.0 F600.0
M61; Laser enable
G1 F1200 X141.349 Y103.448 E39.5372
G0 A270.0 F600.0
M60; Laser disable
G0 F6000 X141.349 Y104.013
G0 A135.005 F600.0
M61; Laser enable
G1 F1200 X135.175 Y97.84 E39.82759
G0 A134.914 F600.0
M60; Laser disable
G0 F6000 X134.843 Y97.507
G0 A135.005 F600.0
M61; Laser enable
G1 F1200 X128.669 Y91.334 E40.11797
G0 A180.0 F600.0
M60; Laser disable
G0 F6000 X128.103 Y91.334
G0 A315.005 F600.0
M61; Laser enable
G1 F1200 X134.277 Y97.507 E40.40835
G0 A180.0 F600.0
M60; Laser disable
G0 F6000 X133.711 Y97.507
G0 A135.0 F600.0
M61; Laser enable
G1 F1200 X127.538 Y91.334 E40.69871
G0 A180.0 F600.0
M60; Laser disable
G0 F6000 X126.972 Y91.334
G0 A315.005 F600.0
M61; Laser enable
G1 F1200 X133.146 Y97.507 E40.98909
G0 A180.0 F600.0
M60; Laser disable
G0 F6000 X132.58 Y97.507
G0 A135.005 F600.0
M61; Laser enable
G1 F1200 X126.406 Y91.334 E41.27948
G0 A180.0 F600.0
M60; Laser disable
G0 F6000 X125.84 Y91.334
G0 A315.005 F600.0
M61; Laser enable
G1 F1200 X132.014 Y97.507 E41.56986
G0 A180.0 F600.0
M60; Laser disable
G0 F6000 X131.449 Y97.507
G0 A135.005 F600.0
M61; Laser enable
G1 F1200 X125.275 Y91.334 E41.86024
G0 A180.0 F600.0
M60; Laser disable
G0 F6000 X124.709 Y91.334
G0 A315.005 F600.0
M61; Laser enable
G1 F1200 X130.883 Y97.507 E42.15062
G0 A180.0 F600.0
M60; Laser disable
G0 F6000 X130.317 Y97.507
G0 A135.005 F600.0
M61; Laser enable
G1 F1200 X124.143 Y91.334 E42.44101
G0 A180.0 F600.0
M60; Laser disable
G0 F6000 X123.578 Y91.334
G0 A315.0 F600.0
M61; Laser enable
G1 F1200 X129.751 Y97.507 E42.73137
G0 A180.0 F600.0
M60; Laser disable
G0 F6000 X129.186 Y97.507
G0 A135.005 F600.0
M61; Laser enable
G1 F1200 X123.012 Y91.334 E43.02175
G0 A180.0 F600.0
M60; Laser disable
G0 F6000 X122.446 Y91.334
G0 A315.005 F600.0
M61; Laser enable
G1 F1200 X128.62 Y97.507 E43.31213
G0 A180.0 F600.0
M60; Laser disable
G0 F6000 X128.054 Y97.507
G0 A135.0 F600.0
M61; Laser enable
G1 F1200 X121.881 Y91.334 E43.60249
G0 A180.0 F600.0
M60; Laser disable
G0 F6000 X121.315 Y91.334
G0 A315.005 F600.0
M61; Laser enable
G1 F1200 X127.489 Y97.507 E43.89287
G0 A180.0 F600.0
M60; Laser disable
G0 F6000 X126.923 Y97.507
G0 A135.005 F600.0
M61; Laser enable
G1 F1200 X120.749 Y91.334 E44.18325
G0 A180.0 F600.0
M60; Laser disable
G0 F6000 X120.184 Y91.334
G0 A315.0 F600.0
M61; Laser enable
G1 F1200 X126.357 Y97.507 E44.47361
G0 A180.0 F600.0
M60; Laser disable
G0 F6000 X125.792 Y97.507
G0 A135.005 F600.0
M61; Laser enable
G1 F1200 X119.618 Y91.334 E44.764
G0 A180.0 F600.0
M60; Laser disable
G0 F6000 X119.052 Y91.334
G0 A315.005 F600.0
M61; Laser enable
G1 F1200 X125.226 Y97.507 E45.05438
G0 A180.0 F600.0
M60; Laser disable
G0 F6000 X124.66 Y97.507
G0 A135.0 F600.0
M61; Laser enable
G1 F1200 X118.487 Y91.334 E45.34474
G0 A180.0 F600.0
M60; Laser disable
G0 F6000 X117.921 Y91.334
G0 A315.005 F600.0
M61; Laser enable
G1 F1200 X124.095 Y97.507 E45.63512
G0 A180.0 F600.0
M60; Laser disable
G0 F6000 X123.529 Y97.507
G0 A135.005 F600.0
M61; Laser enable
G1 F1200 X117.355 Y91.334 E45.9255
G0 A180.0 F600.0
M60; Laser disable
G0 F6000 X116.789 Y91.334
G0 A315.005 F600.0
M61; Laser enable
G1 F1200 X122.963 Y97.507 E46.21589
G0 A180.0 F600.0
M60; Laser disable
G0 F6000 X122.398 Y97.507
G0 A135.005 F600.0
M61; Laser enable
G1 F1200 X116.224 Y91.334 E46.50627
G0 A180.0 F600.0
M60; Laser disable
G0 F6000 X115.658 Y91.334
G0 A315.005 F600.0
M61; Laser enable
G1 F1200 X121.832 Y97.507 E46.79665
G0 A180.0 F600.0
M60; Laser disable
G0 F6000 X121.266 Y97.507
G0 A135.005 F600.0
M61; Laser enable
G1 F1200 X115.092 Y91.334 E47.08703
G0 A180.0 F600.0
M60; Laser disable
G0 F6000 X114.527 Y91.334
G0 A315.005 F600.0
M61; Laser enable
G1 F1200 X120.701 Y97.507 E47.37742
G0 A180.0 F600.0
M60; Laser disable
G0 F6000 X120.135 Y97.507
G0 A135.005 F600.0
M61; Laser enable
G1 F1200 X113.961 Y91.334 E47.6678
G0 A180.0 F600.0
M60; Laser disable
G0 F6000 X113.395 Y91.334
G0 A315.005 F600.0
M61; Laser enable
G1 F1200 X119.569 Y97.507 E47.95818
G0 A180.0 F600.0
M60; Laser disable
G0 F6000 X119.003 Y97.507
G0 A135.0 F600.0
M61; Laser enable
G1 F1200 X112.83 Y91.334 E48.24854
G0 A180.0 F600.0
M60; Laser disable
G0 F6000 X112.264 Y91.334
G0 A315.005 F600.0
M61; Laser enable
G1 F1200 X118.438 Y97.507 E48.53892
G0 A180.0 F600.0
M60; Laser disable
G0 F6000 X117.872 Y97.507
G0 A135.005 F600.0
M61; Laser enable
G1 F1200 X111.698 Y91.334 E48.8293
G0 A180.0 F600.0
M60; Laser disable
G0 F6000 X111.133 Y91.334
G0 A315.0 F600.0
M61; Laser enable
G1 F1200 X117.306 Y97.507 E49.11966
G0 A180.0 F600.0
M60; Laser disable
G0 F6000 X116.741 Y97.507
G0 A135.005 F600.0
M61; Laser enable
G1 F1200 X110.567 Y91.334 E49.41005
G0 A180.0 F600.0
M60; Laser disable
G0 F6000 X110.001 Y91.334
G0 A315.005 F600.0
M61; Laser enable
G1 F1200 X116.175 Y97.507 E49.70043
G0 A180.0 F600.0
M60; Laser disable
G0 F6000 X115.609 Y97.507
G0 A135.0 F600.0
M61; Laser enable
G1 F1200 X109.436 Y91.334 E49.99079
G0 A180.0 F600.0
M60; Laser disable
G0 F6000 X108.87 Y91.334
G0 A315.005 F600.0
M61; Laser enable
G1 F1200 X115.044 Y97.507 E50.28117
G0 A180.0 F600.0
M60; Laser disable
G0 F6000 X114.478 Y97.507
G0 A135.005 F600.0
M61; Laser enable
G1 F1200 X108.304 Y91.334 E50.57155
G0 A180.0 F600.0
M60; Laser disable
G0 F6000 X107.739 Y91.334
G0 A315.0 F600.0
M61; Laser enable
G1 F1200 X113.912 Y97.507 E50.86191
G0 A180.0 F600.0
M60; Laser disable
G0 F6000 X113.347 Y97.507
G0 A135.005 F600.0
M61; Laser enable
G1 F1200 X107.173 Y91.334 E51.15229
G0 A180.0 F600.0
M60; Laser disable
G0 F6000 X106.607 Y91.334
G0 A315.005 F600.0
M61; Laser enable
G1 F1200 X112.781 Y97.507 E51.44268
G0 A180.0 F600.0
M60; Laser disable
G0 F6000 X112.215 Y97.507
G0 A135.005 F600.0
M61; Laser enable
G1 F1200 X106.041 Y91.334 E51.73306
G0 A180.0 F600.0
M60; Laser disable
G0 F6000 X105.476 Y91.334
G0 A315.005 F600.0
M61; Laser enable
G1 F1200 X111.65 Y97.507 E52.02344
G0 A180.0 F600.0
M60; Laser disable
G0 F6000 X111.084 Y97.507
G0 A135.005 F600.0
M61; Laser enable
G1 F1200 X104.91 Y91.334 E52.31382
G0 A180.0 F600.0
M60; Laser disable
G0 F6000 X104.344 Y91.334
G0 A315.005 F600.0
M61; Laser enable
G1 F1200 X110.518 Y97.507 E52.60421
G0 A180.0 F600.0
M60; Laser disable
G0 F6000 X109.952 Y97.507
G0 A135.0 F600.0
M61; Laser enable
G1 F1200 X103.779 Y91.334 E52.89457
G0 A180.0 F600.0
M60; Laser disable
G0 F6000 X103.213 Y91.334
G0 A315.005 F600.0
M61; Laser enable
G1 F1200 X109.387 Y97.507 E53.18495
G0 A180.0 F600.0
M60; Laser disable
G0 F6000 X108.821 Y97.507
G0 A135.005 F600.0
M61; Laser enable
G1 F1200 X102.647 Y91.334 E53.47533
G0 A180.0 F600.0
M60; Laser disable
G0 F6000 X102.082 Y91.334
G0 A315.0 F600.0
M61; Laser enable
G1 F1200 X108.255 Y97.507 E53.76569
G0 A180.0 F600.0
M60; Laser disable
G0 F6000 X107.69 Y97.507
G0 A135.005 F600.0
M61; Laser enable
G1 F1200 X101.516 Y91.334 E54.05607
G0 A180.0 F600.0
M60; Laser disable
G0 F6000 X100.95 Y91.334
G0 A315.005 F600.0
M61; Laser enable
G1 F1200 X107.124 Y97.507 E54.34645
G0 A180.0 F600.0
M60; Laser disable
G0 F6000 X106.558 Y97.507
G0 A135.0 F600.0
M61; Laser enable
G1 F1200 X100.385 Y91.334 E54.63681
G0 A180.0 F600.0
M60; Laser disable
G0 F6000 X99.819 Y91.334
G0 A315.005 F600.0
M61; Laser enable
G1 F1200 X105.993 Y97.507 E54.9272
G0 A180.0 F600.0
M60; Laser disable
G0 F6000 X105.427 Y97.507
G0 A135.005 F600.0
M61; Laser enable
G1 F1200 X99.253 Y91.334 E55.21758
G0 A180.0 F600.0
M60; Laser disable
G0 F6000 X98.688 Y91.334
G0 A315.0 F600.0
M61; Laser enable
G1 F1200 X104.861 Y97.507 E55.50794
G0 A180.0 F600.0
M60; Laser disable
G0 F6000 X104.296 Y97.507
G0 A135.005 F600.0
M61; Laser enable
G1 F1200 X98.122 Y91.334 E55.79832
G0 A180.0 F600.0
M60; Laser disable
G0 F6000 X97.556 Y91.334
G0 A315.005 F600.0
M61; Laser enable
G1 F1200 X103.73 Y97.507 E56.0887
G0 A180.0 F600.0
M60; Laser disable
G0 F6000 X103.164 Y97.507
G0 A135.0 F600.0
M61; Laser enable
G1 F1200 X96.991 Y91.334 E56.37906
G0 A180.0 F600.0
M60; Laser disable
G0 F6000 X96.425 Y91.334
G0 A315.005 F600.0
M61; Laser enable
G1 F1200 X102.599 Y97.507 E56.66944
G0 A180.0 F600.0
M60; Laser disable
G0 F6000 X102.033 Y97.507
G0 A135.005 F600.0
M61; Laser enable
G1 F1200 X95.859 Y91.334 E56.95983
G0 A180.0 F600.0
M60; Laser disable
G0 F6000 X95.293 Y91.334
G0 A315.005 F600.0
M61; Laser enable
G1 F1200 X101.467 Y97.507 E57.25021
G0 A180.0 F600.0
M60; Laser disable
G0 F6000 X100.902 Y97.507
G0 A135.005 F600.0
M61; Laser enable
G1 F1200 X94.728 Y91.334 E57.54059
G0 A180.0 F600.0
M60; Laser disable
G0 F6000 X94.162 Y91.334
G0 A315.005 F600.0
M61; Laser enable
G1 F1200 X100.336 Y97.507 E57.83097
G0 A185.899 F600.0
M60; Laser disable
G0 F6000 X99.823 Y97.56
G0 A135.0 F600.0
M61; Laser enable
G1 F1200 X93.649 Y91.386 E58.12138
G0 A270.0 F600.0
M60; Laser disable
G0 F6000 X93.649 Y91.952
G0 A315.0 F600.0
M61; Laser enable
G1 F1200 X99.823 Y98.126 E58.41179
G0 A270.0 F600.0
M60; Laser disable
G0 F6000 X99.823 Y98.692
G0 A134.995 F600.0
M61; Laser enable
G1 F1200 X93.649 Y92.517 E58.70222
G0 A270.0 F600.0
M60; Laser disable
G0 F6000 X93.649 Y93.083
G0 A315.0 F600.0
M61; Laser enable
G1 F1200 X99.823 Y99.257 E58.99262
G0 A270.0 F600.0
M60; Laser disable
G0 F6000 X99.823 Y99.823
G0 A135.0 F600.0
M61; Laser enable
G1 F1200 X93.649 Y93.649 E59.28303
G0 A270.0 F600.0
M60; Laser disable
G0 F6000 X93.649 Y94.214
G0 A314.995 F600.0
M61; Laser enable
G1 F1200 X99.823 Y100.389 E59.57346
G0 A270.0 F600.0
M60; Laser disable
G0 F6000 X99.823 Y100.955
G0 A134.995 F600.0
M61; Laser enable
G1 F1200 X93.649 Y94.78 E59.86389
G0 A270.0 F600.0
