;FLAVOR:Marlin
;TIME:3876
;Filament used: 3.44032m
;Layer height: 0.2
;MINX:92.701
;MINY:97.829
;MINZ:0.2
;MAXX:142.299
;MAXY:148.261
;MAXZ:10
;Generated with Cura_SteamEngine 4.12.1
M140 S50
M105
M190 S50
M104 S200
M105
M109 S200
M82 ;absolute extrusion mode
G90 ;Laser FFF Custom Start Gcode
M82
M106 S0
M140 S60 ; From this M140 to M109 are temperature settings and should be added by Cura
M190 S60
M104 S250 T0
M109 S250 T0
G28 ; home all axes 
G0 X50 Z20 F2400; lift up nozzle. This part should also be available in Cura called as wipe or something similar. 
G0 E50 ; Extrude
G0 X0 Z0 F1800 ; move to home position
G92 E0
G92 E0
G1 F2700 E-5
;LAYER_COUNT:50
;LAYER:0
M107
;MESH:hollow cylinder for ryan test.STL
G0 F6000 X117.57 Y138.228 Z0.2
;TYPE:WALL-INNER
G1 F2700 E0
G1 F1200 X119.649 Y138.081 E0.06932
G1 X121.689 Y137.656 E0.13863
G1 X123.654 Y136.963 E0.20793
G1 X125.511 Y136.015 E0.27728
G1 X127.224 Y134.829 E0.34657
G1 X128.763 Y133.423 E0.41591
G1 X130.102 Y131.825 E0.48525
G1 X131.214 Y130.065 E0.55449
G1 X132.084 Y128.169 E0.62387
G1 X132.692 Y126.177 E0.69315
G1 X133.03 Y124.12 E0.76248
G1 X133.089 Y122.037 E0.83179
G1 X133.014 Y120.987 E0.8668
G1 X132.866 Y119.935 E0.90213
G1 X132.38 Y117.939 E0.97046
G1 X131.622 Y115.998 E1.03977
G1 X130.612 Y114.174 E1.10911
G1 X129.37 Y112.502 E1.17839
G1 X127.914 Y111.01 E1.24773
G1 X126.272 Y109.725 E1.31707
G1 X124.474 Y108.672 E1.38638
G1 X122.552 Y107.867 E1.45568
G1 X120.539 Y107.325 E1.52502
G1 X118.472 Y107.057 E1.59434
G1 X116.388 Y107.066 E1.66366
G1 X114.324 Y107.354 E1.73297
G1 X112.317 Y107.913 E1.80227
G1 X110.402 Y108.734 E1.87157
G1 X108.614 Y109.805 E1.94089
G1 X106.984 Y111.104 E2.01021
G1 X105.541 Y112.608 E2.07954
G1 X104.313 Y114.292 E2.14886
G1 X103.32 Y116.123 E2.21814
G1 X102.579 Y118.071 E2.28746
G1 X102.104 Y120.102 E2.35683
G1 X101.905 Y122.175 E2.4261
G1 X101.984 Y124.259 E2.49546
G1 X102.339 Y126.312 E2.56476
G1 X102.966 Y128.3 E2.63409
G1 X103.852 Y130.186 E2.70339
G1 X104.981 Y131.938 E2.77272
G1 X106.334 Y133.523 E2.84203
G1 X107.885 Y134.915 E2.91134
G1 X109.609 Y136.087 E2.98068
G1 X111.474 Y137.018 E3.05001
G1 X113.446 Y137.693 E3.11933
G1 X115.489 Y138.1 E3.18862
G1 X117.57 Y138.228 E3.25796
G0 F6000 X117.568 Y137.827
;TYPE:WALL-OUTER
G1 F1200 X119.594 Y137.684 E3.32552
G1 X121.581 Y137.27 E3.39302
G1 X123.496 Y136.595 E3.46056
G1 X125.305 Y135.671 E3.52812
G1 X126.974 Y134.515 E3.59565
G1 X128.474 Y133.146 E3.66319
G1 X129.778 Y131.589 E3.73074
G1 X130.862 Y129.874 E3.79822
G1 X131.709 Y128.027 E3.8658
G1 X132.302 Y126.086 E3.93331
G1 X132.631 Y124.082 E4.00085
G1 X132.689 Y122.046 E4.0686
G1 X132.616 Y121.029 E4.10251
G1 X132.473 Y120.01 E4.13673
G1 X131.998 Y118.06 E4.20349
G1 X131.259 Y116.168 E4.27105
G1 X130.275 Y114.391 E4.33861
G1 X129.065 Y112.762 E4.4061
G1 X127.646 Y111.309 E4.47365
G1 X126.047 Y110.057 E4.54119
G1 X124.295 Y109.031 E4.60872
G1 X122.422 Y108.246 E4.67627
G1 X120.461 Y107.718 E4.74382
G1 X118.447 Y107.457 E4.81136
G1 X116.417 Y107.466 E4.87888
G1 X114.406 Y107.746 E4.94641
G1 X112.45 Y108.291 E5.01395
G1 X110.584 Y109.091 E5.08147
G1 X108.842 Y110.134 E5.149
G1 X107.254 Y111.4 E5.21655
G1 X105.848 Y112.865 E5.28409
G1 X104.652 Y114.506 E5.35162
G1 X103.684 Y116.29 E5.41913
G1 X102.962 Y118.188 E5.48667
G1 X102.5 Y120.167 E5.55427
G1 X102.306 Y122.187 E5.62176
G1 X102.383 Y124.217 E5.68933
G1 X102.729 Y126.217 E5.75683
G1 X103.339 Y128.154 E5.82438
G1 X104.203 Y129.992 E5.89193
G1 X105.303 Y131.699 E5.95947
G1 X106.621 Y133.243 E6.02699
G1 X108.132 Y134.599 E6.09452
G1 X109.812 Y135.741 E6.16208
G1 X111.629 Y136.648 E6.22962
G1 X113.55 Y137.306 E6.29716
G1 X115.541 Y137.702 E6.36468
G1 X117.568 Y137.827 E6.43223
G0 F6000 X117.569 Y138.267
G1 F2700 E1.43223
G0 F6000 X117.568 Y136.96
G0 X118.086 Y148.261
G0 X118.008 Y146.79
G0 X117.5 Y147.027
;TYPE:WALL-INNER
G1 F2700 E6.43223
G1 F1200 X114.956 Y146.894 E6.51696
G1 X112.418 Y146.491 E6.60243
G1 X109.964 Y145.834 E6.68692
G1 X107.575 Y144.917 E6.77203
G1 X105.302 Y143.759 E6.85688
G1 X103.159 Y142.367 E6.94187
G1 X101.171 Y140.757 E7.02696
G1 X99.37 Y138.957 E7.11165
G1 X97.757 Y136.963 E7.19695
G1 X96.368 Y134.826 E7.28172
G1 X95.21 Y132.553 E7.36657
G1 X94.294 Y130.166 E7.4516
G1 X93.635 Y127.707 E7.53628
G1 X93.234 Y125.172 E7.62164
G1 X93.101 Y122.628 E7.70637
G1 X93.234 Y120.083 E7.79113
G1 X93.635 Y117.548 E7.8765
G1 X94.294 Y115.089 E7.96117
G1 X95.21 Y112.702 E8.0462
G1 X96.368 Y110.43 E8.13102
G1 X97.761 Y108.287 E8.21603
G1 X99.37 Y106.298 E8.30112
G1 X101.171 Y104.498 E8.38581
G1 X103.159 Y102.888 E8.4709
G1 X105.302 Y101.496 E8.55589
G1 X107.575 Y100.338 E8.64074
G1 X109.964 Y99.421 E8.72585
G1 X112.418 Y98.764 E8.81034
G1 X114.956 Y98.362 E8.89581
G1 X117.5 Y98.229 E8.98054
G1 X120.044 Y98.362 E9.06527
G1 X122.582 Y98.764 E9.15073
G1 X125.036 Y99.421 E9.23523
G1 X127.425 Y100.338 E9.32034
G1 X129.698 Y101.496 E9.40519
G1 X131.841 Y102.888 E9.49018
G1 X133.829 Y104.498 E9.57526
G1 X135.63 Y106.298 E9.65995
G1 X137.239 Y108.287 E9.74504
G1 X138.632 Y110.43 E9.83006
G1 X139.79 Y112.702 E9.91487
G1 X140.706 Y115.089 E9.99991
G1 X141.365 Y117.548 E10.08458
G1 X141.766 Y120.083 E10.16994
G1 X141.899 Y122.628 E10.25471
G1 X141.766 Y125.172 E10.33944
G1 X141.365 Y127.707 E10.4248
G1 X140.706 Y130.166 E10.50947
G1 X139.79 Y132.553 E10.59451
G1 X138.632 Y134.826 E10.67935
G1 X137.243 Y136.963 E10.76413
G1 X135.63 Y138.957 E10.84943
G1 X133.829 Y140.757 E10.93412
G1 X131.841 Y142.367 E11.0192
G1 X129.698 Y143.759 E11.1042
G1 X127.425 Y144.917 E11.18904
G1 X125.036 Y145.834 E11.27415
G1 X122.582 Y146.491 E11.35865
G1 X120.044 Y146.894 E11.44412
G1 X117.5 Y147.027 E11.52885
G0 F6000 X117.5 Y147.427
;TYPE:WALL-OUTER
G1 F1200 X114.91 Y147.292 E11.61511
G1 X112.339 Y146.884 E11.70169
G1 X109.841 Y146.215 E11.78771
G1 X107.409 Y145.281 E11.87435
G1 X105.103 Y144.106 E11.96043
G1 X102.919 Y142.688 E12.04704
G1 X100.903 Y141.055 E12.13333
G1 X99.072 Y139.225 E12.21943
G1 X97.44 Y137.208 E12.30573
G1 X96.021 Y135.025 E12.39233
G1 X94.846 Y132.719 E12.47841
G1 X93.913 Y130.287 E12.56504
G1 X93.243 Y127.788 E12.6511
G1 X92.836 Y125.218 E12.73764
G1 X92.701 Y122.628 E12.8239
G1 X92.836 Y120.037 E12.9102
G1 X93.243 Y117.467 E12.99674
G1 X93.913 Y114.968 E13.08279
G1 X94.846 Y112.536 E13.16943
G1 X96.021 Y110.231 E13.25548
G1 X97.44 Y108.047 E13.34211
G1 X99.072 Y106.03 E13.4284
G1 X100.903 Y104.2 E13.5145
G1 X102.919 Y102.567 E13.60079
G1 X105.103 Y101.149 E13.6874
G1 X107.409 Y99.974 E13.77348
G1 X109.841 Y99.04 E13.86013
G1 X112.339 Y98.371 E13.94614
G1 X114.91 Y97.964 E14.03272
G1 X117.5 Y97.829 E14.11898
G1 X120.09 Y97.964 E14.20524
G1 X122.661 Y98.371 E14.29182
G1 X125.159 Y99.04 E14.37783
G1 X127.591 Y99.974 E14.46448
G1 X129.897 Y101.149 E14.55056
G1 X132.081 Y102.567 E14.63716
G1 X134.097 Y104.2 E14.72346
G1 X135.928 Y106.03 E14.80956
G1 X137.56 Y108.047 E14.89585
G1 X138.979 Y110.231 E14.98248
G1 X140.154 Y112.536 E15.06853
G1 X141.087 Y114.968 E15.15517
G1 X141.757 Y117.467 E15.24122
G1 X142.164 Y120.037 E15.32776
G1 X142.299 Y122.628 E15.41406
G1 X142.164 Y125.218 E15.50032
G1 X141.757 Y127.788 E15.58686
G1 X141.087 Y130.287 E15.67291
G1 X140.154 Y132.719 E15.75955
G1 X138.979 Y135.025 E15.84563
G1 X137.56 Y137.208 E15.93223
G1 X135.928 Y139.225 E16.01852
G1 X134.097 Y141.055 E16.10462
G1 X132.081 Y142.688 E16.19091
G1 X129.897 Y144.106 E16.27752
G1 X127.591 Y145.281 E16.3636
G1 X125.159 Y146.215 E16.45025
G1 X122.661 Y146.884 E16.53626
G1 X120.09 Y147.292 E16.62285
G1 X117.5 Y147.427 E16.70911
G0 F6000 X117.5 Y146.987
G0 X117.5 Y146.635
;TYPE:SKIN
G1 F1200 X115 Y146.506 E16.79237
G1 X112.495 Y146.108 E16.87673
G1 X110.082 Y145.462 E16.95981
G1 X107.729 Y144.559 E17.04364
G1 X105.503 Y143.424 E17.12674
G1 X103.389 Y142.051 E17.21058
G1 X101.422 Y140.458 E17.29477
G1 X99.665 Y138.702 E17.37739
G1 X98.076 Y136.738 E17.46142
G1 X96.703 Y134.625 E17.54523
G1 X95.568 Y132.399 E17.62833
G1 X94.666 Y130.048 E17.71209
G1 X94.018 Y127.63 E17.79535
G1 X93.622 Y125.129 E17.87957
G1 X93.493 Y122.628 E17.96286
G1 X93.622 Y120.126 E18.04619
G1 X94.018 Y117.625 E18.13041
G1 X94.667 Y115.204 E18.21377
G1 X95.568 Y112.856 E18.29742
G1 X96.703 Y110.631 E18.3805
G1 X98.08 Y108.512 E18.46455
G1 X99.665 Y106.553 E18.54836
G1 X101.422 Y104.797 E18.63098
G1 X103.389 Y103.204 E18.71517
G1 X105.503 Y101.831 E18.79901
G1 X107.729 Y100.696 E18.88211
G1 X110.082 Y99.793 E18.96594
G1 X112.495 Y99.147 E19.04902
G1 X114.999 Y98.75 E19.13335
G1 X117.5 Y98.621 E19.21664
G1 X120.001 Y98.75 E19.29994
G1 X122.505 Y99.147 E19.38426
G1 X124.918 Y99.793 E19.46734
G1 X127.271 Y100.696 E19.55117
G1 X129.497 Y101.831 E19.63427
G1 X131.611 Y103.204 E19.71811
G1 X133.578 Y104.797 E19.8023
G1 X135.335 Y106.553 E19.88492
G1 X136.92 Y108.512 E19.96873
G1 X138.297 Y110.631 E20.05279
G1 X139.432 Y112.856 E20.13586
G1 X140.333 Y115.204 E20.21951
G1 X140.982 Y117.625 E20.30287
G1 X141.378 Y120.126 E20.38709
G1 X141.507 Y122.628 E20.47042
G1 X141.378 Y125.129 E20.55372
G1 X140.982 Y127.63 E20.63794
G1 X140.334 Y130.048 E20.7212
G1 X139.432 Y132.399 E20.80495
G1 X138.297 Y134.625 E20.88806
G1 X136.924 Y136.738 E20.97187
G1 X135.335 Y138.702 E21.05589
G1 X133.578 Y140.458 E21.13851
G1 X131.611 Y142.051 E21.2227
G1 X129.497 Y143.424 E21.30654
G1 X127.271 Y144.559 E21.38965
G1 X124.918 Y145.462 E21.47347
G1 X122.505 Y146.108 E21.55655
G1 X120 Y146.506 E21.64092
G1 X117.5 Y146.635 E21.72418
G1 F2700 E16.72418
G0 F6000 X117.485 Y146.914
G0 X118.013 Y146.79
G0 X118.091 Y148.261
G0 X117.568 Y136.96
G0 X117.571 Y138.418
G1 F2700 E21.72418
G0 F6000 X117.572 Y138.618
G1 F1200 X119.703 Y138.469 E21.79523
G1 X121.794 Y138.032 E21.86628
G1 X123.808 Y137.322 E21.9373
G1 X125.712 Y136.35 E22.00841
G1 X127.468 Y135.135 E22.07943
G1 X129.046 Y133.694 E22.1505
G1 X130.418 Y132.055 E22.2216
G1 X131.557 Y130.252 E22.29253
G1 X132.449 Y128.308 E22.36367
G1 X133.072 Y126.266 E22.43467
G1 X133.42 Y124.157 E22.50577
G1 X133.479 Y122.029 E22.57657
G1 X133.402 Y120.946 E22.61268
G1 X133.25 Y119.861 E22.64912
G1 X132.753 Y117.822 E22.71893
G1 X131.975 Y115.832 E22.78999
G1 X130.941 Y113.962 E22.86106
G1 X129.668 Y112.248 E22.93208
G1 X128.175 Y110.719 E23.00315
G1 X126.492 Y109.402 E23.07423
G1 X124.649 Y108.323 E23.14526
G1 X122.679 Y107.497 E23.21631
G1 X120.615 Y106.941 E23.28741
G1 X118.496 Y106.667 E23.35847
G1 X116.36 Y106.676 E23.42952
G1 X114.244 Y106.972 E23.50058
G1 X112.187 Y107.544 E23.57159
G1 X110.224 Y108.385 E23.64262
G1 X108.391 Y109.484 E23.71371
G1 X106.721 Y110.815 E23.78473
G1 X105.241 Y112.357 E23.85582
G1 X103.983 Y114.083 E23.92686
G1 X102.965 Y115.96 E23.99788
G1 X102.205 Y117.956 E24.06892
G1 X101.718 Y120.039 E24.14007
G1 X101.515 Y122.164 E24.21106
G1 X101.596 Y124.3 E24.28216
G1 X101.959 Y126.404 E24.35317
G1 X102.602 Y128.442 E24.42425
G1 X103.51 Y130.375 E24.49528
G1 X104.667 Y132.172 E24.56637
G1 X106.055 Y133.796 E24.63742
G1 X107.644 Y135.223 E24.70846
G1 X109.412 Y136.424 E24.77954
G1 X111.323 Y137.379 E24.8506
G1 X113.344 Y138.071 E24.92165
G1 X115.439 Y138.488 E24.9927
G1 X117.572 Y138.618 E25.06377
G1 F2700 E20.06377
G0 F6000 X117.572 Y138.338
G0 X111.4 Y137.194
G0 X111.963 Y135.849
G0 X98.483 Y139.859
G0 X99.525 Y138.815
G0 X97.985 Y137.068
G1 F2700 E25.06377
G0 F6000 X98.327 Y136.794
G1 F1200 X103.329 Y141.796 E25.29905
G0 F6000 X103.052 Y142.137
G0 X104.771 Y143.282
G0 X105.012 Y142.913
G1 F1200 X97.209 Y135.11 E25.66608
G0 F6000 X96.84 Y135.349
G0 X96.066 Y133.992
G0 X96.458 Y133.793
G1 F1200 X106.329 Y143.665 E26.1304
G0 F6000 X106.129 Y144.057
G0 X107.284 Y144.646
G0 X107.484 Y144.254
G1 F1200 X95.87 Y132.639 E26.67672
G0 F6000 X95.478 Y132.838
G0 X95.045 Y131.816
G0 X95.456 Y131.66
G1 F1200 X108.465 Y144.669 E27.28862
G0 F6000 X109.383 Y145.021
G1 F1200 X95.104 Y130.742 E27.96026
G0 F6000 X94.779 Y129.851
G1 F1200 X110.274 Y145.347 E28.68912
G0 F6000 X111.046 Y145.553
G1 F1200 X94.571 Y129.078 E29.46405
G0 F6000 X94.364 Y128.305
G1 F1200 X111.819 Y145.76 E30.28508
G0 F6000 X112.582 Y145.958
G1 F1200 X94.166 Y127.541 E31.15134
G0 F6000 X94.06 Y126.869
G1 F1200 X113.255 Y146.064 E32.05421
G0 F6000 X113.927 Y146.171
G1 F1200 X93.953 Y126.197 E32.99373
G0 F6000 X93.847 Y125.525
G1 F1200 X114.6 Y146.279 E33.96991
G0 F6000 X115.244 Y146.356
G1 F1200 X93.769 Y124.882 E34.98
G0 F6000 X93.739 Y124.286
G1 F1200 X115.84 Y146.387 E36.01957
G0 F6000 X116.436 Y146.417
G1 F1200 X93.708 Y123.689 E37.08862
G0 F6000 X93.677 Y123.093
G1 F1200 X117.033 Y146.448 E38.18719
G0 F6000 X117.616 Y146.466
G1 F1200 X93.659 Y122.509 E39.31406
G0 F6000 X93.687 Y121.971
G1 F1200 X118.154 Y146.438 E40.46491
G0 F6000 X118.692 Y146.411
G1 F1200 X107.811 Y135.529 E40.97674
G0 F6000 X108.058 Y135.167
G0 X109.681 Y136.247
G0 X109.485 Y136.638
G1 F1200 X119.231 Y146.384 E41.43516
G0 F6000 X119.769 Y146.356
G1 F1200 X110.616 Y137.204 E41.86567
G0 F6000 X110.812 Y136.812
G0 X111.775 Y137.238
G0 X111.632 Y137.653
G1 F1200 X120.277 Y146.298 E42.2723
G0 F6000 X120.765 Y146.221
G1 F1200 X112.492 Y137.948 E42.66144
G0 F6000 X113.343 Y138.233
G1 F1200 X121.253 Y146.143 E43.0335
G0 F6000 X121.741 Y146.065
G1 F1200 X114.049 Y138.374 E43.39529
G0 F6000 X114.756 Y138.515
G1 F1200 X122.229 Y145.987 E43.74677
G0 F6000 X122.696 Y145.889
G1 F1200 X115.455 Y138.648 E44.08737
G0 F6000 X116.058 Y138.685
G1 F1200 X123.142 Y145.77 E44.4206
G0 F6000 X123.588 Y145.65
G1 F1200 X116.659 Y138.721 E44.74652
G0 F6000 X117.262 Y138.758
G1 F1200 X124.035 Y145.531 E45.0651
G0 F6000 X124.481 Y145.412
G1 F1200 X117.828 Y138.759 E45.37804
G0 F6000 X118.358 Y138.723
G1 F1200 X124.922 Y145.287 E45.68679
G0 F6000 X125.331 Y145.13
G1 F1200 X118.887 Y138.686 E45.98989
G0 F6000 X119.416 Y138.649
G1 F1200 X125.74 Y144.973 E46.28735
G0 F6000 X126.149 Y144.816
G1 F1200 X119.92 Y138.587 E46.58035
G0 F6000 X120.387 Y138.489
G1 F1200 X126.557 Y144.659 E46.87056
G0 F6000 X126.966 Y144.502
G1 F1200 X120.855 Y138.392 E47.15798
G0 F6000 X121.323 Y138.293
G1 F1200 X127.361 Y144.332 E47.44202
G0 F6000 X127.736 Y144.141
G1 F1200 X121.791 Y138.196 E47.72165
G0 F6000 X122.214 Y138.053
G1 F1200 X128.11 Y143.949 E47.99898
G0 F6000 X128.485 Y143.759
G1 F1200 X122.632 Y137.905 E48.27431
G0 F6000 X123.05 Y137.758
G1 F1200 X128.86 Y143.568 E48.5476
G0 F6000 X129.235 Y143.377
G1 F1200 X123.468 Y137.61 E48.81886
G0 F6000 X123.885 Y137.461
G1 F1200 X129.592 Y143.169 E49.08732
G0 F6000 X129.935 Y142.946
G1 F1200 X124.259 Y137.27 E49.3543
G0 F6000 X124.633 Y137.079
G1 F1200 X130.278 Y142.723 E49.6198
G0 F6000 X130.621 Y142.501
G1 F1200 X125.008 Y136.888 E49.88382
G0 F6000 X125.382 Y136.696
G1 F1200 X130.964 Y142.278 E50.14638
G0 F6000 X131.307 Y142.055
G1 F1200 X125.757 Y136.505 E50.40744
G0 F6000 X126.095 Y136.277
G1 F1200 X131.638 Y141.82 E50.66816
G0 F6000 X131.951 Y141.567
G1 F1200 X126.429 Y136.046 E50.92788
G0 F6000 X126.764 Y135.815
G1 F1200 X132.264 Y141.315 E51.18658
G0 F6000 X132.576 Y141.062
G1 F1200 X127.098 Y135.584 E51.44425
G0 F6000 X127.433 Y135.352
G1 F1200 X132.889 Y140.809 E51.70091
G0 F6000 X133.201 Y140.555
G1 F1200 X127.744 Y135.098 E51.95759
G0 F6000 X128.04 Y134.828
G1 F1200 X133.51 Y140.299 E52.2149
G0 F6000 X133.793 Y140.016
G1 F1200 X128.336 Y134.558 E52.47161
G0 F6000 X128.631 Y134.288
G1 F1200 X134.076 Y139.733 E52.72772
G0 F6000 X134.359 Y139.45
G1 F1200 X128.927 Y134.018 E52.98323
G0 F6000 X129.214 Y133.74
G1 F1200 X134.642 Y139.167 E53.23852
G0 F6000 X134.925 Y138.884
G1 F1200 X129.472 Y133.432 E53.49499
G0 F6000 X129.73 Y133.124
G1 F1200 X135.208 Y138.602 E53.75266
G0 F6000 X135.462 Y138.29
G1 F1200 X129.988 Y132.816 E54.01014
G0 F6000 X130.245 Y132.508
G1 F1200 X135.715 Y137.978 E54.26743
G0 F6000 X135.968 Y137.665
G1 F1200 X130.503 Y132.2 E54.52449
G0 F6000 X130.729 Y131.86
G1 F1200 X136.221 Y137.352 E54.78281
G0 F6000 X136.474 Y137.04
G1 F1200 X130.948 Y131.514 E55.04274
G0 F6000 X131.167 Y131.167
G1 F1200 X136.726 Y136.726 E55.30422
G0 F6000 X136.957 Y136.391
G1 F1200 X131.386 Y130.82 E55.56626
G0 F6000 X131.605 Y130.473
G1 F1200 X137.18 Y136.048 E55.82849
G0 F6000 X137.402 Y135.705
G1 F1200 X131.8 Y130.103 E56.09199
