
;FLAVOR:Marlin
;TIME:3876
;Filament used: 3.44032m
;Layer height: 0.2
;MINX:92.701
;MINY:97.829
;MINZ:0.2
;MAXX:142.299
;MAXY:148.261
;MAXZ:10
;Generated with Cura_SteamEngine 4.12.1
M140 S50
M105
M190 S50
M104 S200
M105
M109 S200
M82 ;absolute extrusion mode
G90 ;Laser FFF Custom Start Gcode
M82
M106 S0
M140 S60 ; From this M140 to M109 are temperature settings and should be added by Cura
M190 S60
M104 S250 T0
M109 S250 T0
G28 ; home all axes 
G0 A0.0 F600.0
G0 X50 Z20 F2400; lift up nozzle. This part should also be available in Cura called as wipe or something similar. 
G0 E50  F2400.0
G0 A180.0 F600.0
G0 X0 Z0 F1800 ; move to home position
G92 E0
G92 E0
M60; Laser disable
G1 F2700 E-5
;LAYER_COUNT:50

;LAYER:0
M107
;MESH:hollow cylinder for ryan test.STL
G0 A310.383 F600.0
M60; Laser disable
G0 F6000 X117.57 Y138.228 Z0.2
;TYPE:WALL-INNER
M61; Laser enable
G1 F2700 E0
G0 A4.044 F600.0
G1 F1200 X119.649 Y138.081 E0.06932
G0 A11.768 F600.0
G1 X121.689 Y137.656 E0.13863 F1200.0
G0 A19.426 F600.0
G1 X123.654 Y136.963 E0.20793 F1200.0
G0 A27.044 F600.0
G1 X125.511 Y136.015 E0.27728 F1200.0
G0 A34.697 F600.0
G1 X127.224 Y134.829 E0.34657 F1200.0
G0 A42.414 F600.0
G1 X128.763 Y133.423 E0.41591 F1200.0
G0 A50.04 F600.0
G1 X130.102 Y131.825 E0.48525 F1200.0
G0 A57.715 F600.0
G1 X131.214 Y130.065 E0.55449 F1200.0
G0 A65.351 F600.0
G1 X132.084 Y128.169 E0.62387 F1200.0
G0 A73.027 F600.0
G1 X132.692 Y126.177 E0.69315 F1200.0
G0 A80.669 F600.0
G1 X133.03 Y124.12 E0.76248 F1200.0
G0 A88.378 F600.0
G1 X133.089 Y122.037 E0.83179 F1200.0
G0 A94.086 F600.0
G1 X133.014 Y120.987 E0.8668 F1200.0
G0 A98.008 F600.0
G1 X132.866 Y119.935 E0.90213 F1200.0
G0 A103.684 F600.0
G1 X132.38 Y117.939 E0.97046 F1200.0
G0 A111.332 F600.0
G1 X131.622 Y115.998 E1.03977 F1200.0
G0 A118.975 F600.0
G1 X130.612 Y114.174 E1.10911 F1200.0
G0 A126.606 F600.0
G1 X129.37 Y112.502 E1.17839 F1200.0
G0 A134.3 F600.0
G1 X127.914 Y111.01 E1.24773 F1200.0
G0 A141.954 F600.0
G1 X126.272 Y109.725 E1.31707 F1200.0
G0 A149.645 F600.0
G1 X124.474 Y108.672 E1.38638 F1200.0
G0 A157.274 F600.0
G1 X122.552 Y107.867 E1.45568 F1200.0
G0 A164.93 F600.0
G1 X120.539 Y107.325 E1.52502 F1200.0
G0 A172.612 F600.0
G1 X118.472 Y107.057 E1.59434 F1200.0
G0 A180.247 F600.0
G1 X116.388 Y107.066 E1.66366 F1200.0
G0 A187.943 F600.0
G1 X114.324 Y107.354 E1.73297 F1200.0
G0 A195.564 F600.0
G1 X112.317 Y107.913 E1.80227 F1200.0
G0 A203.206 F600.0
G1 X110.402 Y108.734 E1.87157 F1200.0
G0 A210.921 F600.0
G1 X108.614 Y109.805 E1.94089 F1200.0
G0 A218.552 F600.0
G1 X106.984 Y111.104 E2.01021 F1200.0
G0 A226.186 F600.0
G1 X105.541 Y112.608 E2.07954 F1200.0
G0 A233.9 F600.0
G1 X104.313 Y114.292 E2.14886 F1200.0
G0 A241.528 F600.0
G1 X103.32 Y116.123 E2.21814 F1200.0
G0 A249.174 F600.0
G1 X102.579 Y118.071 E2.28746 F1200.0
G0 A256.837 F600.0
G1 X102.104 Y120.102 E2.35683 F1200.0
G0 A264.517 F600.0
G1 X101.905 Y122.175 E2.4261 F1200.0
G0 A272.171 F600.0
G1 X101.984 Y124.259 E2.49546 F1200.0
G0 A279.81 F600.0
G1 X102.339 Y126.312 E2.56476 F1200.0
G0 A287.505 F600.0
G1 X102.966 Y128.3 E2.63409 F1200.0
G0 A295.163 F600.0
G1 X103.852 Y130.186 E2.70339 F1200.0
G0 A302.798 F600.0
G1 X104.981 Y131.938 E2.77272 F1200.0
G0 A310.485 F600.0
G1 X106.334 Y133.523 E2.84203 F1200.0
G0 A318.092 F600.0
G1 X107.885 Y134.915 E2.91134 F1200.0
G0 A325.792 F600.0
G1 X109.609 Y136.087 E2.98068 F1200.0
G0 A333.472 F600.0
G1 X111.474 Y137.018 E3.05001 F1200.0
G0 A341.104 F600.0
G1 X113.446 Y137.693 E3.11933 F1200.0
G0 A348.733 F600.0
G1 X115.489 Y138.1 E3.18862 F1200.0
G0 A356.48 F600.0
G1 X117.57 Y138.228 E3.25796 F1200.0
M60; Laser disable
G0 F6000 X117.568 Y137.827
;TYPE:WALL-OUTER
G0 A4.037 F600.0
M61; Laser enable
G1 F1200 X119.594 Y137.684 E3.32552
G0 A11.769 F600.0
G1 X121.581 Y137.27 E3.39302 F1200.0
G0 A19.417 F600.0
G1 X123.496 Y136.595 E3.46056 F1200.0
G0 A27.057 F600.0
G1 X125.305 Y135.671 E3.52812 F1200.0
G0 A34.708 F600.0
G1 X126.974 Y134.515 E3.59565 F1200.0
G0 A42.386 F600.0
G1 X128.474 Y133.146 E3.66319 F1200.0
G0 A50.054 F600.0
G1 X129.778 Y131.589 E3.73074 F1200.0
G0 A57.704 F600.0
G1 X130.862 Y129.874 E3.79822 F1200.0
G0 A65.365 F600.0
G1 X131.709 Y128.027 E3.8658 F1200.0
G0 A73.011 F600.0
G1 X132.302 Y126.086 E3.93331 F1200.0
G0 A80.677 F600.0
G1 X132.631 Y124.082 E4.00085 F1200.0
G0 A88.368 F600.0
G1 X132.689 Y122.046 E4.0686 F1200.0
G0 A94.106 F600.0
G1 X132.616 Y121.029 E4.10251 F1200.0
G0 A97.988 F600.0
G1 X132.473 Y120.01 E4.13673 F1200.0
G0 A103.69 F600.0
G1 X131.998 Y118.06 E4.20349 F1200.0
G0 A111.335 F600.0
G1 X131.259 Y116.168 E4.27105 F1200.0
G0 A118.975 F600.0
G1 X130.275 Y114.391 E4.33861 F1200.0
G0 A126.604 F600.0
G1 X129.065 Y112.762 E4.4061 F1200.0
G0 A134.322 F600.0
G1 X127.646 Y111.309 E4.47365 F1200.0
G0 A141.939 F600.0
G1 X126.047 Y110.057 E4.54119 F1200.0
G0 A149.646 F600.0
G1 X124.295 Y109.031 E4.60872 F1200.0
G0 A157.261 F600.0
G1 X122.422 Y108.246 E4.67627 F1200.0
G0 A164.93 F600.0
G1 X120.461 Y107.718 E4.74382 F1200.0
G0 A172.616 F600.0
G1 X118.447 Y107.457 E4.81136 F1200.0
G0 A180.254 F600.0
G1 X116.417 Y107.466 E4.87888 F1200.0
G0 A187.927 F600.0
G1 X114.406 Y107.746 E4.94641 F1200.0
G0 A195.569 F600.0
G1 X112.45 Y108.291 E5.01395 F1200.0
G0 A203.206 F600.0
G1 X110.584 Y109.091 E5.08147 F1200.0
G0 A210.911 F600.0
G1 X108.842 Y110.134 E5.149 F1200.0
G0 A218.563 F600.0
G1 X107.254 Y111.4 E5.21655 F1200.0
G0 A226.177 F600.0
G1 X105.848 Y112.865 E5.28409 F1200.0
G0 A233.915 F600.0
G1 X104.652 Y114.506 E5.35162 F1200.0
G0 A241.516 F600.0
G1 X103.684 Y116.29 E5.41913 F1200.0
G0 A249.173 F600.0
G1 X102.962 Y118.188 E5.48667 F1200.0
G0 A256.86 F600.0
G1 X102.5 Y120.167 E5.55427 F1200.0
G0 A264.514 F600.0
G1 X102.306 Y122.187 E5.62176 F1200.0
G0 A272.172 F600.0
G1 X102.383 Y124.217 E5.68933 F1200.0
G0 A279.815 F600.0
G1 X102.729 Y126.217 E5.75683 F1200.0
G0 A287.48 F600.0
G1 X103.339 Y128.154 E5.82438 F1200.0
G0 A295.177 F600.0
G1 X104.203 Y129.992 E5.89193 F1200.0
G0 A302.798 F600.0
G1 X105.303 Y131.699 E5.95947 F1200.0
G0 A310.485 F600.0
G1 X106.621 Y133.243 E6.02699 F1200.0
G0 A318.095 F600.0
G1 X108.132 Y134.599 E6.09452 F1200.0
G0 A325.794 F600.0
G1 X109.812 Y135.741 E6.16208 F1200.0
G0 A333.473 F600.0
G1 X111.629 Y136.648 E6.22962 F1200.0
G0 A341.092 F600.0
G1 X113.55 Y137.306 E6.29716 F1200.0
G0 A348.751 F600.0
G1 X115.541 Y137.702 E6.36468 F1200.0
G0 A356.471 F600.0
G1 X117.568 Y137.827 E6.43223 F1200.0
M60; Laser disable
G0 F6000 X117.569 Y138.267
M60; Laser disable
G1 F2700 E1.43223
G0 A90.044 F600.0
M60; Laser disable
G0 F6000 X117.568 Y136.96
G0 A272.624 F600.0
G0 X118.086 Y148.261 F6000.0
G0 A93.035 F600.0
G0 X118.008 Y146.79 F6000.0
G0 X117.5 Y147.027 F6000.0
;TYPE:WALL-INNER
M61; Laser enable
G1 F2700 E6.43223
G0 A177.007 F600.0
G1 F1200 X114.956 Y146.894 E6.51696
G0 A170.978 F600.0
G1 X112.418 Y146.491 E6.60243 F1200.0
G0 A165.012 F600.0
G1 X109.964 Y145.834 E6.68692 F1200.0
G0 A159.001 F600.0
G1 X107.575 Y144.917 E6.77203 F1200.0
G0 A153.003 F600.0
G1 X105.302 Y143.759 E6.85688 F1200.0
G0 A146.994 F600.0
G1 X103.159 Y142.367 E6.94187 F1200.0
G0 A140.997 F600.0
G1 X101.171 Y140.757 E7.02696 F1200.0
G0 A135.016 F600.0
G1 X99.37 Y138.957 E7.11165 F1200.0
G0 A128.97 F600.0
G1 X97.757 Y136.963 E7.19695 F1200.0
G0 A123.023 F600.0
G1 X96.368 Y134.826 E7.28172 F1200.0
G0 A116.997 F600.0
G1 X95.21 Y132.553 E7.36657 F1200.0
G0 A110.994 F600.0
G1 X94.294 Y130.166 E7.4516 F1200.0
G0 A105.002 F600.0
G1 X93.635 Y127.707 E7.53628 F1200.0
G0 A98.989 F600.0
G1 X93.234 Y125.172 E7.62164 F1200.0
G0 A92.993 F600.0
G1 X93.101 Y122.628 E7.70637 F1200.0
G0 A87.008 F600.0
G1 X93.234 Y120.083 E7.79113 F1200.0
G0 A81.011 F600.0
G1 X93.635 Y117.548 E7.8765 F1200.0
G0 A74.998 F600.0
G1 X94.294 Y115.089 E7.96117 F1200.0
G0 A69.006 F600.0
G1 X95.21 Y112.702 E8.0462 F1200.0
G0 A62.993 F600.0
G1 X96.368 Y110.43 E8.13102 F1200.0
G0 A56.975 F600.0
G1 X97.761 Y108.287 E8.21603 F1200.0
G0 A51.029 F600.0
G1 X99.37 Y106.298 E8.30112 F1200.0
G0 A44.984 F600.0
G1 X101.171 Y104.498 E8.38581 F1200.0
G0 A39.003 F600.0
G1 X103.159 Y102.888 E8.4709 F1200.0
G0 A33.006 F600.0
G1 X105.302 Y101.496 E8.55589 F1200.0
G0 A26.997 F600.0
G1 X107.575 Y100.338 E8.64074 F1200.0
G0 A20.999 F600.0
G1 X109.964 Y99.421 E8.72585 F1200.0
G0 A14.988 F600.0
G1 X112.418 Y98.764 E8.81034 F1200.0
G0 A9.0 F600.0
G1 X114.956 Y98.362 E8.89581 F1200.0
G0 A2.993 F600.0
G1 X117.5 Y98.229 E8.98054 F1200.0
G0 A357.007 F600.0
G1 X120.044 Y98.362 E9.06527 F1200.0
G0 A351.0 F600.0
G1 X122.582 Y98.764 E9.15073 F1200.0
G0 A345.012 F600.0
G1 X125.036 Y99.421 E9.23523 F1200.0
G0 A339.001 F600.0
G1 X127.425 Y100.338 E9.32034 F1200.0
G0 A333.003 F600.0
G1 X129.698 Y101.496 E9.40519 F1200.0
G0 A326.994 F600.0
G1 X131.841 Y102.888 E9.49018 F1200.0
G0 A320.997 F600.0
G1 X133.829 Y104.498 E9.57526 F1200.0
G0 A315.016 F600.0
G1 X135.63 Y106.298 E9.65995 F1200.0
G0 A308.971 F600.0
G1 X137.239 Y108.287 E9.74504 F1200.0
G0 A303.025 F600.0
G1 X138.632 Y110.43 E9.83006 F1200.0
G0 A297.007 F600.0
G1 X139.79 Y112.702 E9.91487 F1200.0
G0 A290.994 F600.0
G1 X140.706 Y115.089 E9.99991 F1200.0
G0 A285.002 F600.0
G1 X141.365 Y117.548 E10.08458 F1200.0
G0 A278.989 F600.0
G1 X141.766 Y120.083 E10.16994 F1200.0
G0 A272.992 F600.0
G1 X141.899 Y122.628 E10.25471 F1200.0
G0 A267.007 F600.0
G1 X141.766 Y125.172 E10.33944 F1200.0
G0 A261.011 F600.0
G1 X141.365 Y127.707 E10.4248 F1200.0
G0 A254.998 F600.0
G1 X140.706 Y130.166 E10.50947 F1200.0
G0 A249.006 F600.0
G1 X139.79 Y132.553 E10.59451 F1200.0
G0 A243.003 F600.0
G1 X138.632 Y134.826 E10.67935 F1200.0
G0 A236.977 F600.0
G1 X137.243 Y136.963 E10.76413 F1200.0
G0 A231.03 F600.0
G1 X135.63 Y138.957 E10.84943 F1200.0
G0 A224.984 F600.0
G1 X133.829 Y140.757 E10.93412 F1200.0
G0 A219.003 F600.0
G1 X131.841 Y142.367 E11.0192 F1200.0
G0 A213.006 F600.0
G1 X129.698 Y143.759 E11.1042 F1200.0
G0 A206.997 F600.0
G1 X127.425 Y144.917 E11.18904 F1200.0
G0 A200.999 F600.0
G1 X125.036 Y145.834 E11.27415 F1200.0
G0 A194.988 F600.0
G1 X122.582 Y146.491 E11.35865 F1200.0
G0 A189.022 F600.0
G1 X120.044 Y146.894 E11.44412 F1200.0
G0 A182.993 F600.0
G1 X117.5 Y147.027 E11.52885 F1200.0
M60; Laser disable
G0 F6000 X117.5 Y147.427
;TYPE:WALL-OUTER
G0 A177.016 F600.0
M61; Laser enable
G1 F1200 X114.91 Y147.292 E11.61511
G0 A170.983 F600.0
G1 X112.339 Y146.884 E11.70169 F1200.0
G0 A165.007 F600.0
G1 X109.841 Y146.215 E11.78771 F1200.0
G0 A158.991 F600.0
G1 X107.409 Y145.281 E11.87435 F1200.0
G0 A152.999 F600.0
G1 X105.103 Y144.106 E11.96043 F1200.0
G0 A147.006 F600.0
G1 X102.919 Y142.688 E12.04704 F1200.0
G0 A140.992 F600.0
G1 X100.903 Y141.055 E12.13333 F1200.0
G0 A135.016 F600.0
G1 X99.072 Y139.225 E12.21943 F1200.0
G0 A128.977 F600.0
G1 X97.44 Y137.208 E12.30573 F1200.0
G0 A123.025 F600.0
G1 X96.021 Y135.025 E12.39233 F1200.0
G0 A117.001 F600.0
G1 X94.846 Y132.719 E12.47841 F1200.0
G0 A110.989 F600.0
G1 X93.913 Y130.287 E12.56504 F1200.0
G0 A105.008 F600.0
G1 X93.243 Y127.788 E12.6511 F1200.0
G0 A98.999 F600.0
G1 X92.836 Y125.218 E12.73764 F1200.0
G0 A92.984 F600.0
G1 X92.701 Y122.628 E12.8239 F1200.0
G0 A87.017 F600.0
G1 X92.836 Y120.037 E12.9102 F1200.0
G0 A81.001 F600.0
G1 X93.243 Y117.467 E12.99674 F1200.0
G0 A74.992 F600.0
G1 X93.913 Y114.968 E13.08279 F1200.0
G0 A69.011 F600.0
G1 X94.846 Y112.536 E13.16943 F1200.0
G0 A62.989 F600.0
G1 X96.021 Y110.231 E13.25548 F1200.0
G0 A56.987 F600.0
G1 X97.44 Y108.047 E13.34211 F1200.0
G0 A51.023 F600.0
G1 X99.072 Y106.03 E13.4284 F1200.0
G0 A44.984 F600.0
G1 X100.903 Y104.2 E13.5145 F1200.0
G0 A39.008 F600.0
G1 X102.919 Y102.567 E13.60079 F1200.0
G0 A32.994 F600.0
G1 X105.103 Y101.149 E13.6874 F1200.0
G0 A27.001 F600.0
G1 X107.409 Y99.974 E13.77348 F1200.0
G0 A21.009 F600.0
G1 X109.841 Y99.04 E13.86013 F1200.0
G0 A14.993 F600.0
G1 X112.339 Y98.371 E13.94614 F1200.0
G0 A8.996 F600.0
G1 X114.91 Y97.964 E14.03272 F1200.0
G0 A2.984 F600.0
G1 X117.5 Y97.829 E14.11898 F1200.0
G0 A357.016 F600.0
G1 X120.09 Y97.964 E14.20524 F1200.0
G0 A351.004 F600.0
G1 X122.661 Y98.371 E14.29182 F1200.0
G0 A345.007 F600.0
G1 X125.159 Y99.04 E14.37783 F1200.0
G0 A338.991 F600.0
G1 X127.591 Y99.974 E14.46448 F1200.0
G0 A332.999 F600.0
G1 X129.897 Y101.149 E14.55056 F1200.0
G0 A327.006 F600.0
G1 X132.081 Y102.567 E14.63716 F1200.0
G0 A320.992 F600.0
G1 X134.097 Y104.2 E14.72346 F1200.0
G0 A315.016 F600.0
G1 X135.928 Y106.03 E14.80956 F1200.0
G0 A308.977 F600.0
G1 X137.56 Y108.047 E14.89585 F1200.0
G0 A303.013 F600.0
G1 X138.979 Y110.231 E14.98248 F1200.0
G0 A297.011 F600.0
G1 X140.154 Y112.536 E15.06853 F1200.0
G0 A290.989 F600.0
G1 X141.087 Y114.968 E15.15517 F1200.0
G0 A285.008 F600.0
G1 X141.757 Y117.467 E15.24122 F1200.0
G0 A278.999 F600.0
G1 X142.164 Y120.037 E15.32776 F1200.0
G0 A272.983 F600.0
G1 X142.299 Y122.628 E15.41406 F1200.0
G0 A267.016 F600.0
G1 X142.164 Y125.218 E15.50032 F1200.0
G0 A261.001 F600.0
G1 X141.757 Y127.788 E15.58686 F1200.0
G0 A254.992 F600.0
G1 X141.087 Y130.287 E15.67291 F1200.0
G0 A249.011 F600.0
G1 X140.154 Y132.719 E15.75955 F1200.0
G0 A242.999 F600.0
G1 X138.979 Y135.025 E15.84563 F1200.0
G0 A236.975 F600.0
G1 X137.56 Y137.208 E15.93223 F1200.0
G0 A231.023 F600.0
G1 X135.928 Y139.225 E16.01852 F1200.0
G0 A224.984 F600.0
G1 X134.097 Y141.055 E16.10462 F1200.0
G0 A219.008 F600.0
G1 X132.081 Y142.688 E16.19091 F1200.0
G0 A212.994 F600.0
G1 X129.897 Y144.106 E16.27752 F1200.0
G0 A207.001 F600.0
G1 X127.591 Y145.281 E16.3636 F1200.0
G0 A201.009 F600.0
G1 X125.159 Y146.215 E16.45025 F1200.0
G0 A194.993 F600.0
G1 X122.661 Y146.884 E16.53626 F1200.0
G0 A189.017 F600.0
G1 X120.09 Y147.292 E16.62285 F1200.0
G0 A182.984 F600.0
G1 X117.5 Y147.427 E16.70911 F1200.0
G0 A90.0 F600.0
M60; Laser disable
G0 F6000 X117.5 Y146.987
G0 X117.5 Y146.635 F6000.0
;TYPE:SKIN
G0 A177.046 F600.0
M61; Laser enable
G1 F1200 X115 Y146.506 E16.79237
G0 A170.972 F600.0
G1 X112.495 Y146.108 E16.87673 F1200.0
G0 A165.012 F600.0
G1 X110.082 Y145.462 E16.95981 F1200.0
G0 A159.005 F600.0
G1 X107.729 Y144.559 E17.04364 F1200.0
G0 A152.984 F600.0
G1 X105.503 Y143.424 E17.12674 F1200.0
G0 A146.997 F600.0
G1 X103.389 Y142.051 E17.21058 F1200.0
G0 A140.997 F600.0
G1 X101.422 Y140.458 E17.29477 F1200.0
G0 A135.016 F600.0
G1 X99.665 Y138.702 E17.37739 F1200.0
G0 A128.975 F600.0
G1 X98.076 Y136.738 E17.46142 F1200.0
G0 A123.015 F600.0
G1 X96.703 Y134.625 E17.54523 F1200.0
G0 A117.016 F600.0
G1 X95.568 Y132.399 E17.62833 F1200.0
G0 A110.99 F600.0
G1 X94.666 Y130.048 E17.71209 F1200.0
G0 A105.002 F600.0
G1 X94.018 Y127.63 E17.79535 F1200.0
G0 A98.997 F600.0
G1 X93.622 Y125.129 E17.87957 F1200.0
G0 A92.953 F600.0
G1 X93.493 Y122.628 E17.96286 F1200.0
G0 A87.049 F600.0
G1 X93.622 Y120.126 E18.04619 F1200.0
G0 A81.003 F600.0
G1 X94.018 Y117.625 E18.13041 F1200.0
G0 A74.993 F600.0
G1 X94.667 Y115.204 E18.21377 F1200.0
G0 A69.007 F600.0
G1 X95.568 Y112.856 E18.29742 F1200.0
G0 A62.973 F600.0
G1 X96.703 Y110.631 E18.3805 F1200.0
G0 A56.983 F600.0
G1 X98.08 Y108.512 E18.46455 F1200.0
G0 A51.024 F600.0
G1 X99.665 Y106.553 E18.54836 F1200.0
G0 A44.984 F600.0
G1 X101.422 Y104.797 E18.63098 F1200.0
G0 A39.003 F600.0
G1 X103.389 Y103.204 E18.71517 F1200.0
G0 A33.003 F600.0
G1 X105.503 Y101.831 E18.79901 F1200.0
G0 A27.016 F600.0
G1 X107.729 Y100.696 E18.88211 F1200.0
G0 A20.995 F600.0
G1 X110.082 Y99.793 E18.96594 F1200.0
G0 A14.988 F600.0
G1 X112.495 Y99.147 E19.04902 F1200.0
G0 A9.009 F600.0
G1 X114.999 Y98.75 E19.13335 F1200.0
G0 A2.953 F600.0
G1 X117.5 Y98.621 E19.21664 F1200.0
G0 A357.047 F600.0
G1 X120.001 Y98.75 E19.29994 F1200.0
G0 A350.991 F600.0
G1 X122.505 Y99.147 E19.38426 F1200.0
G0 A345.012 F600.0
G1 X124.918 Y99.793 E19.46734 F1200.0
G0 A339.005 F600.0
G1 X127.271 Y100.696 E19.55117 F1200.0
G0 A332.984 F600.0
G1 X129.497 Y101.831 E19.63427 F1200.0
G0 A326.997 F600.0
G1 X131.611 Y103.204 E19.71811 F1200.0
G0 A320.997 F600.0
G1 X133.578 Y104.797 E19.8023 F1200.0
G0 A315.016 F600.0
G1 X135.335 Y106.553 E19.88492 F1200.0
G0 A308.976 F600.0
G1 X136.92 Y108.512 E19.96873 F1200.0
G0 A303.017 F600.0
G1 X138.297 Y110.631 E20.05279 F1200.0
G0 A297.027 F600.0
G1 X139.432 Y112.856 E20.13586 F1200.0
G0 A290.993 F600.0
